X:1
T:The Well-Tempered Clavier Part II Fuga XI
T:BWV 880
T:J. S. Bach
%%score { ( 1 3 ) | ( 2 4 5 ) }
L:1/8
M:6/16
K:F
V:1 treble nm="Harp"
V:3 treble 
V:2 bass 
V:4 bass 
V:5 bass 
V:1
 z3/2 F/E/F/ | c z/ A/G/A/ | d z/ c/d/e/ | f/e/d/ c/d/B/ | A/G/F/ EB/ | Ad/ Gd/ | cf/ =Bf/ | %7
 e/d/c/ g=B/ | c3/2- c/B/A/ | B/c/d/ _e3/2- | e/d/c/ d/=e/f/ | g3/2- g/f/e/ | f/g/a/ b3/2- | %13
 b/a/g/ a/b/a/ | g3/2- g/c'/e/ | f3/2 e/f/g/ | cf/ fe/ | f z/ z3/2 | g/f/e/ d/_e/c/ | B/A/G/ Ad/ | %20
 Gd/ Ae/- | e/^c/d/- d/=B/=c/- | c/e/f/ =B/c/d/ | Gc/ c=B/ | cG/ B3/2 | A3/2- Ad/ | G3/2- GG/ | %27
 c3/2- c/c/=B/ | c z/ z3/2 | g/g/e/ d/e/c/ | =B/A/G/ ^c z/ | a/g/f/ e/f/d/ | ^c/=B/A/ d3/2- | %33
 d/c/=B/ c3/2- | c/B/A/ B3/2- | B/c/B/ A/B/G/ | ^F/E/D/ G3/2- | G/F/E/ F/G/A/ | B3/2- B/A/G/ | %39
 A3/2- A/B/c/ | d3/2- d/c/B/ | c3/2- c/d/e/ | f3/2- f/e/d/ | e3/2- e/f/g/ | a/g/f/ e/f/4e/4d/4c/4 | %45
 f3 | _e/g/^f<g- | g3/2 ^f/g/a/ | B/d/c/ B/c/A/ | G_e/ ^cA/- | A/A/d/ ^c/d/e/ | d/e/f/ B3/2- | %52
 B/f/g/ c3/2- | c/B/A/ B z/ | z/ z/ B/ AG/ | F3/2- F/_E/D/ | C3/2- C/D/_E/ | F3/2- F/G/A/ | %58
 B3/2 B/c/d/ | _e3- | e/d/c/d/_e/d/ | c3/2- c/c/f/ | B3/2- B/B/_e/ | A3/2- A/A/d/ | G3/2- G/G/c/ | %65
 F3/2- FB/- | B/G/A/- Ad/ | B3/2 A/B/c/ | d/c/_e/ d/e/c/ | B3- | B3- | B3/2- B/G/_A/ | %72
 _A3/2- A/F/G/ | G3/2- G/E/F/ | F3/2- F/D/E/ | E z/ _A3/2- | A/G/F<G- | G/F/E/F/c/f/ | %78
 B3/2- B/e/g/ | c3/2- c/f/_a/ | _df/ bd/ | cb/ _af/ | =B/f/g/ a/g/f/- | f/e/_d/- d/c/B/- | %84
 B/_A/G/ F/E/F/- | F/D/E/ A/G/A/ | [B_d] z/ c/=d/e/ | f/e/d/ c/d/B/ | A/F/4G/4A/4B/4c3/2- | %89
 c3/2B3/2- | B/>G/A/4B/4 c3/2- | c/>A/B/4c/4 d3/2- | d/4B/4c/4d/4e/4f/4 g/4f/4e/4d/4c/4B/4 | %93
 A/c/B/ c3/2- | cd/ _e3/2 | d3/2- dg/ | e3/2- ea/ | fd/ A/B/G/ | F3/2 z3/2 |] %99
V:2
 z3 | z3 | z3 | z3 | z3 | z3 | z3 | z3 | z3 | z3 | z3 | z3 | z3 | z3/2 F,/E,/F,/ | C z/ A,/G,/A,/ | %15
 D z/ C/D/E/ | F/E/D/ C/D/B,/ | A,/G,/F,/ B,3/2- | B,3/2A,3/2 | G,/F,/E,/ D,/E,/C,/ | %20
 =B,,/A,,/G,,/ C,/B,,/C,/ | F, z/ E,/D,/E,/ | A, z/ G,/A,/=B,/ | C/=B,/A,/ G,/A,/F,/ | %24
 C,/D,/B,,/ C,/D,/E,/ | F,/G,/E,/ D,/E,/F,/ | G,/A,/F,/ E,/F,/G,/ | A,/G,/F,/ G,G,,/ | %28
 C/=B,/A,/ G,/A,/F,/ | E,/D,/C,/ F,3/2- | F,3/2E,3/2 | D,3/2B,,3/2 | A,,3- | A,,3/2 A,,/B,,/C,/ | %34
 D,/E,/^F,/ G,=F,/ | E,3/2_E,3/2 | D,3- | D,3/2- D,/E,/F,/ | G,3/2E,3/2 | F,3/2- F,/G,/A,/ | %40
 B,3/2G,3/2 | A,3/2- A,/B,/C/ | D3/2=B,3/2 | C3/2- C/D/E/ | F/E/D/ C/D/B,/ | A,/G,/F,/ G,/A,/=B,/ | %46
 C/=B,/A,/ G,/_A,/F,/ | _E,/D,/C,/ D,/=E,/^F,/ | G,/F,/_E,/ D,/E,/C,/ | %49
 B,,/A,,/G,,/ A,,/=B,,/^C,/ | D,/C,/B,,/ A,,/B,,/G,,/ | F,,/E,,/D,,/ D, z/ | E, z/ _E, z/ | %53
 D,/E,/F,/ E,/F,/G,/ | A,,B,,/ C,^C,/ | D,3/2- D,/C,/B,,/ | F,3/2- F,_E,/ | D,C,/ B,,A,,/ | %58
 G,,F,,/ _E,,D,,/ | C,,>C,,D,,/_E,,/ | F,,3- | F,,3- | F,,3- | F,,3- | F,, z/ z3/2 | %65
 z3/2 B,,/A,,/B,,/ | F, z/ D,/C,/D,/ | G, z/ F,/G,/A,/ | B,/A,/G,/ F,/G,/_E,/ | %69
 D,/C,/B,,/ B,/C/D/ | _E/D/C/ B,/C/_A,/ | G,F,/ E,D,/ | F, z/ D, z/ | E, z/ F, z/ | %74
 _D, z/ =B,, z/ | C,3- | C,3- | C,3- | C,3- | C,3- | C,3- | C,/D,/E,/ F,/G,/_A,/ | D,,3 | %83
 C,, z/ z C,/- | C, z/ z3/2 | [G,C] z/ F, z/ | B,,/_D,/F,/ B,/A,/G,/ | A,B,/ CC,/ | %88
 F, z/ F,,/E,,/F,,/ | B,, z/ G,,/F,,/G,,/ | C, z/ A,,/G,,/A,,/ | D, z/ B,,/A,,/B,,/ | %92
 E, z/ C,/D,/E,/ | F,/E,/D,/ C,/D,/B,,/ | A,,/B,,/G,,/ F,,/G,,/A,,/ | B,,/C,/A,,/ G,,/_A,,/B,,/ | %96
 C,/D,/B,,/ A,,/B,,/C,/ | D,/C,/B,,/ C,C,,/ | F,,3/2 z3/2 |] %99
V:3
 x3 | x3 | x3 | x3 | z3/2 C/B,/C/ | F z/ E/D/E/ | A z/ G/A/=B/ | c/=B/A/ G/A/F/ | E/D/C/ D/E/^F/ | %9
 G3/2- G/F/_E/ | F/G/A/ B3/2- | B/A/G/ A/=B/^c/ | d3/2- d/c/B/ | c/d/e/ f3/2- | f/e/d<c- | %15
 c/A/B/- B3/2 | AB/ AG/ | c/B/A/ G/A/F/ |[I:staff +1] E/D/C/ ^F3/2 |[I:staff -1] G z/ F3/2- | %20
 F3/2E3/2 | A3/2G3/2 | F3- | F/E/F/ ED/ | C3/2- CG/- | GC/ F3/2- | F=B,/ C/D/E/ | F/G/A<D | %28
 E/G/F/ E/F/E/ |[I:staff +1] C[I:staff -1] z/ z3/2 |[I:staff +1] D/C/=B,/ A,/_B,/G,/ | %31
 F,/E,/D,/ G,3/2- | G,3/2 F,/E,/D,/ | E,/^F,/^G,/ A,[I:staff -1] z/ | z3/2[I:staff +1] G,/A,/B,/ | %35
 C3- | C3/2 B,/A,/G,/ | A,/B,/^C/ D3/2- | D/[I:staff -1]C/B,/ C3/2- | C/D/E/ F3/2- | F/E/D/ E3/2- | %41
 E/F/G/ A3/2- | A/G/F/ G3/2- | G/A/=B/ c z/ | x3 | z/ z/ d/ =BG/- | Gc/ =B/c/d/ | c/d/_e<A- | %48
 AG/ G^F/ | G3 | FG/ A z/ | z3/2[I:staff +1] F,/E,/F,/ | x3 |[I:staff -1] D z/ C/D/E/ | %54
 F/E/D/ C/D/B,/ |[I:staff +1] A,/G,/F,<B,- | B,/A,/G,/ A,3/2- | A,/[I:staff -1]B,/C/ D3/2- | %58
 D/_E/F/ G3/2- | G/A/B/ cB/ | A3/2B3/2- | B/A/G<A- | A/G/F<G- | G/F/E<F- | F/_E/D<E- | %65
 E/D/C/ D3/2 | C3/2F3/2- | F/D/_E/ z3/2 | x3 | z3/2 D/_E/F/ | G/F/_A/G/A/F/ | E/F/G/ C3/2- | %72
 C/[I:staff +1]_A,/B,/ B,3/2- | B,/G,/_A,/ A,3/2- | A,/F,/G,/ G,3/2 | %75
 G,/=B,/C/- C/[I:staff -1]E/F/ |[I:staff +1] B,3/2- B,/E,/G,/ | x3 | x3 | x3 | x3 | %81
 F,[I:staff -1] z/ z3/2 | z3/2[I:staff +1] =B,,3/2 | C,D,/ E,C,/ | F,G,/ _A,3/2 | %85
[I:staff -1] c z/ [CE] z/ | [_DF] z/ z3/2 | z B/ AG/ | F/ z/ z/ z/ A/_E/ | _E/D/4F/4G/4A/4 B/D/F/ | %90
 F/E- E/E/F/ | G/F- F/4c/4B/4A/4G/4F/4 | G/4 z/4 z/ z/ z3/2 | z3/2 z/ z/ E/ | FB/ A/B/c/- | %95
 cF/ B3/2- | BG/ c3/2- | c/A/B/ FE/ | F3/2 z3/2 |] %99
V:4
 x3 | x3 | x3 | x3 | x3 | x3 | x3 | x3 | x3 | x3 | x3 | x3 | x3 | x3 | x3 | x3 | x3 | x3 | x3 | %19
 x3 | x3 | x3 | x3 | x3 | x3 | x3 | x3 | x3 | x3 | x3 | x3 | x3 | x3 | x3 | x3 | x3 | x3 | x3 | %38
 x3 | x3 | x3 | x3 | x3 | x3 | x3 | x3 | x3 | x3 | x3 | x3 | x3 | x3 | x3 | x3 | x3 | x3 | x3 | %57
 x3 | x3 | x3 | x3 | x3 | x3 | x3 | x3 | x3 | x3 | x3 | x3 | x3 | x3 | x3 | x3 | x3 | x3 | x3 | %76
 x3 | _A,/ z/ z2 | _A,/G,/F,/E,/G,/B,/- | B,/_A,/G,/ F,/A,/C/- | C/B,/_A,/ G,/A,/F,/ | x3 | x3 | %83
 x3 | x3 | C, z/ C, z/ | B, z/ z3/2 | x3 | x3 | x3 | x3 | x3 | x3 | x3 | x3 | x3 | x3 | x3 | x3 |] %99
V:5
 x3 | x3 | x3 | x3 | x3 | x3 | x3 | x3 | x3 | x3 | x3 | x3 | x3 | x3 | x3 | x3 | x3 | x3 | x3 | %19
 x3 | x3 | x3 | x3 | x3 | x3 | x3 | x3 | x3 | x3 | x3 | x3 | x3 | x3 | x3 | x3 | x3 | x3 | x3 | %38
 x3 | x3 | x3 | x3 | x3 | x3 | x3 | x3 | x3 | x3 | x3 | x3 | x3 | x3 | x3 | x3 | x3 | x3 | x3 | %57
 x3 | x3 | x3 | x3 | x3 | x3 | x3 | x3 | x3 | x3 | x3 | x3 | x3 | x3 | x3 | x3 | x3 | x3 | x3 | %76
 x3 | x3 | x3 | x3 | x3 | x3 | x3 | x3 |[I:staff -1] z3/2 z/[I:staff +1] C/=B,/ | x3 | x3 | x3 | %88
 x3 | x3 | x3 | x3 | x3 | x3 | x3 | x3 | x3 | x3 | x3 |] %99

